lib/logo_tmp/nrk-logo-nrk-p3-urort-title-below-on-light.svg

<svg width="89" height="36" viewBox="0 0 89 36" fill="none" xmlns="http://www.w3.org/2000/svg">
<rect x="3.46155" y="3.46155" width="29.0769" height="29.0769" fill="white"/>
<path fill-rule="evenodd" clip-rule="evenodd" d="M0 0H36V36H0V0ZM11.6262 15.9996H8.30773V28.0565H11.6262V15.9996ZM15.8337 15.9996H12.1072C12.1072 15.9996 14.2244 19.4706 14.2483 19.5143C14.4105 19.7895 14.4204 19.9584 14.262 20.224L12.1072 23.7517H15.8337C15.8337 23.7517 17.6306 20.8171 17.8763 20.4098C18.1202 20.0022 18.1092 19.7489 17.8665 19.3305C17.6187 18.9089 17.6025 18.8826 16.1466 16.5096L16.1463 16.5091L16.1457 16.5082L16.1452 16.5073L16.1446 16.5063L16.144 16.5054L15.8337 15.9996ZM26.27 15.9996C26.27 15.9996 27.379 17.784 27.5044 17.9972C27.7478 18.4169 27.7588 18.6708 27.5141 19.0797C27.3432 19.3631 25.8771 21.7894 25.8771 21.7894C26.1458 22.2278 26.5036 22.8012 26.8179 23.3047L26.8183 23.3054C27.1411 23.8226 27.4177 24.2659 27.5042 24.4131C27.7477 24.8327 27.7587 25.0867 27.5141 25.4956C27.4676 25.5727 27.3731 25.7312 27.2493 25.9392L27.248 25.9413C26.9165 26.4977 26.3753 27.4063 25.9773 28.0565H22.5724L24.4367 24.9966L22.5031 21.7555L24.2371 18.918H20.0365L18.2943 15.9996H26.27ZM19.8319 22.191C19.3071 23.0472 18.4292 24.4818 18.2649 24.7617C18.0304 25.1659 18.0198 25.4105 18.2555 25.8043C18.4199 26.0772 19.3048 27.5233 19.832 28.3846C20.3593 27.5232 21.2441 26.0771 21.4086 25.8043C21.6442 25.4103 21.6336 25.1659 21.3992 24.7617C21.2346 24.4818 20.3566 23.0472 19.8319 22.191ZM8.30773 7.43136V14.2139H10.5338V7.43136H8.30773ZM14.8425 14.2139L13.5623 8.51083C13.5008 8.20894 13.3372 7.93743 13.0991 7.74186C12.8614 7.53772 12.5574 7.42729 12.244 7.43136H10.8777L12.4063 14.2139H14.8425ZM15.1769 7.43136V14.2139H17.4029V7.43136H15.1769ZM18.4013 9.82912C18.6083 9.95021 18.8442 10.013 19.0841 10.0107C19.084 10.0107 19.084 10.0106 19.0839 10.0106H19.0842C19.0842 10.0106 19.0841 10.0107 19.0841 10.0107C19.3226 10.0134 19.5573 9.95064 19.7625 9.82912C19.9648 9.71003 20.1327 9.54051 20.2498 9.33714C20.3709 9.13004 20.4337 8.89405 20.4315 8.65415C20.4341 8.41571 20.3712 8.18112 20.2498 7.97589C20.1314 7.77474 19.9637 7.60705 19.7625 7.48869C19.5573 7.36739 19.3227 7.3046 19.0842 7.30717C18.8444 7.30498 18.6084 7.36772 18.4013 7.48869C18.1981 7.60603 18.0286 7.77385 17.9093 7.97589C17.7877 8.18106 17.7248 8.41569 17.7276 8.65415C17.7252 8.89407 17.788 9.1301 17.9093 9.33714C18.0273 9.5414 18.197 9.71107 18.4013 9.82912ZM20.7754 7.43136V14.2139H23.0016V7.43136H20.7754ZM25.9631 11.3719C25.8738 11.2224 25.8261 11.1444 25.8198 11.1379H25.8195C25.7511 11.0463 25.7113 10.9367 25.705 10.8226C25.709 10.714 25.742 10.6084 25.8005 10.5168L27.6923 7.4312H25.2466C25.0938 7.67979 24.9552 7.90587 24.8308 8.10945C24.707 8.31325 24.575 8.53139 24.4347 8.76384C24.2943 8.99629 24.1557 9.22397 24.0188 9.44687C23.8818 9.66977 23.7624 9.8624 23.6605 10.0248C23.5586 10.1872 23.4885 10.3003 23.4503 10.3639C23.3597 10.5007 23.3071 10.6589 23.2976 10.8226C23.3094 10.9932 23.3654 11.1578 23.4599 11.3003C23.498 11.3577 23.5665 11.4691 23.6654 11.6346C23.7639 11.8 23.8817 11.9926 24.0188 12.2125C24.1558 12.4325 24.2944 12.6586 24.4347 12.8908C24.5746 13.1233 24.7066 13.3398 24.8308 13.5404C24.955 13.741 25.0936 13.9655 25.2466 14.2139H27.6923C27.5137 13.921 27.3545 13.6583 27.2147 13.4258C27.0743 13.1932 26.9246 12.9464 26.7655 12.6854C26.6063 12.4244 26.4551 12.1776 26.3118 11.9451C26.1686 11.7124 26.0524 11.5213 25.9631 11.3719Z" fill="black"/>
<path d="M52.0532 18.4664C52.0617 19.0545 51.9921 19.6412 51.8462 20.2111C51.7299 20.6744 51.5109 21.1056 51.2055 21.4728C50.8994 21.8193 50.5089 22.0808 50.0719 22.2318C49.5293 22.4147 48.9588 22.5014 48.3864 22.4881C47.7193 22.5032 47.0558 22.386 46.4343 22.1431C45.8883 21.9186 45.4407 21.506 45.1726 20.9799C44.8524 20.2861 44.7037 19.5254 44.7389 18.7621V10.0093H42.6689V19.0985C42.6467 19.9162 42.798 20.7293 43.1128 21.4843C43.3815 22.107 43.8017 22.6525 44.3351 23.0713C44.8719 23.481 45.4852 23.7793 46.1389 23.9486C46.8465 24.1355 47.5757 24.2282 48.3075 24.2243C49.4069 24.2672 50.4991 24.0297 51.4815 23.5343C52.2841 23.1005 52.9292 22.4244 53.3248 21.6023C53.7438 20.6878 53.9493 19.6901 53.9257 18.6845V10.0103H52.0529L52.0532 18.4664Z" fill="black"/>
<path d="M60.9838 13.8831C60.615 13.9817 60.2629 14.1346 59.9389 14.3366C59.6025 14.5464 59.2916 14.7944 59.0123 15.0758C58.9657 15.1222 58.9204 15.1744 58.8743 15.223V13.7547L56.8635 14.0504V24.0061H58.8743V16.5584C59.0238 16.4539 59.1784 16.357 59.3376 16.2682C59.5349 16.1598 59.7391 16.0643 59.9488 15.9824C60.1523 15.9035 60.3593 15.8345 60.5698 15.7754C60.7862 15.7151 61.007 15.6723 61.2302 15.6472C61.4691 15.621 61.7098 15.6144 61.9498 15.6275L62.1863 13.7747C61.7823 13.7455 61.3761 13.7821 60.9838 13.8831Z" fill="black"/>
<path d="M72.4772 13.4984L71.3732 14.6635C71.2281 14.5554 71.0767 14.456 70.9198 14.3658C70.0957 13.9271 69.1719 13.7098 68.2386 13.7353C67.3003 13.714 66.3727 13.9381 65.5476 14.3855C64.7861 14.8118 64.1633 15.4483 63.7536 16.2189C63.3084 17.0836 63.088 18.0465 63.1129 19.0187C63.0877 19.9842 63.2974 20.9414 63.7241 21.8079C63.8371 22.0225 63.9671 22.2278 64.1128 22.4217L63.0143 23.5924L63.9212 24.4201L64.9726 23.2839C65.1242 23.3972 65.2832 23.5002 65.4484 23.5924C66.2531 24.0147 67.1521 24.225 68.0606 24.2032C69.005 24.2231 69.9387 23.999 70.7713 23.5527C71.5493 23.1229 72.1888 22.4801 72.6145 21.6998C73.0786 20.8269 73.3094 19.849 73.2848 18.8607C73.3075 17.9194 73.094 16.9875 72.6638 16.1499C72.5469 15.9354 72.413 15.7305 72.2636 15.5372L73.4031 14.3264L72.4772 13.4984ZM65.5969 16.9093C65.818 16.4156 66.1864 16.0024 66.6516 15.7264C67.1425 15.454 67.6972 15.3179 68.2584 15.3321C68.7046 15.3219 69.1479 15.4059 69.5595 15.5786C69.7812 15.6782 69.9857 15.8122 70.1657 15.9755L65.5792 20.929C65.3236 20.2841 65.2022 19.5938 65.2224 18.9004C65.199 18.2172 65.3269 17.5373 65.5969 16.9093ZM70.8015 20.9701C70.576 21.4799 70.2014 21.9094 69.7271 22.2022C69.2514 22.4777 68.7093 22.6175 68.1598 22.6067C67.615 22.6194 67.0779 22.4757 66.6122 22.1927C66.481 22.1083 66.3583 22.0113 66.2459 21.9032L70.8347 16.9487C70.903 17.1058 70.9611 17.2671 71.0085 17.4317C71.1383 17.9102 71.2014 18.4043 71.1958 18.9001C71.2192 19.6112 71.0845 20.3186 70.8015 20.9714V20.9701Z" fill="black"/>
<path d="M79.9289 13.8831C79.5601 13.9818 79.208 14.1346 78.884 14.3366C78.5477 14.5464 78.2368 14.7945 77.9574 15.0758C77.9108 15.1222 77.8654 15.1744 77.8194 15.223V13.7547L75.8086 14.0504V24.0061H77.8194V16.5584C77.9689 16.4539 78.1235 16.357 78.2827 16.2682C78.48 16.1598 78.6842 16.0643 78.8939 15.9824C79.0976 15.9035 79.3046 15.8345 79.5149 15.7754C79.7313 15.7152 79.9521 15.6724 80.1753 15.6472C80.4142 15.621 80.6549 15.6144 80.8949 15.6275L81.1314 13.7747C80.7274 13.7455 80.3212 13.7821 79.9289 13.8831Z" fill="black"/>
<path d="M88.4852 22.3603C88.3929 22.3797 88.291 22.3997 88.1793 22.4191L87.8445 22.4782C87.7368 22.4974 87.6281 22.5106 87.5189 22.5177C87.4137 22.5246 87.3148 22.5275 87.2232 22.5275C86.921 22.5359 86.621 22.4753 86.3459 22.3501C86.1092 22.238 85.913 22.0555 85.784 21.8277C85.6459 21.5706 85.5779 21.2818 85.5869 20.9901V15.5289H88.3666L88.5838 13.9518H85.5869V10.8366L83.576 11.5463V13.9518H82.058L81.8412 15.5289H83.576V21.4038C83.5672 21.7957 83.6272 22.186 83.7534 22.5571C83.855 22.8507 84.0124 23.1218 84.2171 23.3555C84.4046 23.5638 84.6327 23.7315 84.8873 23.8484C85.148 23.9681 85.4228 24.0542 85.7052 24.1047C85.9848 24.1562 86.2685 24.1826 86.5529 24.1835C86.7632 24.1835 86.9698 24.1769 87.1742 24.1641C87.3786 24.1513 87.5649 24.1313 87.7361 24.1047C87.9072 24.078 88.0676 24.0485 88.2187 24.0163C88.3699 23.9841 88.498 23.9538 88.6032 23.9272L88.7218 22.2913C88.6449 22.3205 88.5658 22.3436 88.4852 22.3603Z" fill="black"/>
</svg>

<svg xmlns="http://www.w3.org/2000/svg" viewBox="0 0 89 36"><path fill="#fff" d="M3.462 3.462h29.077v29.077H3.462z"/><path fill="#000" fill-rule="evenodd" d="M0 0h36v36H0V0Zm11.626 16H8.308v12.056h3.318V16Zm4.208 0h-3.727s2.117 3.47 2.141 3.514c.163.276.172.444.014.71l-2.155 3.528h3.727s1.797-2.935 2.042-3.342c.244-.408.233-.661-.01-1.08-.247-.421-.264-.447-1.72-2.82v-.002l-.001-.002h-.001l-.31-.506Zm10.436 0s1.109 1.784 1.234 1.997c.244.42.255.674.01 1.083l-1.637 2.71c.269.438.627 1.011.94 1.515h.001c.323.518.6.96.686 1.108.244.42.255.674.01 1.083l-.265.443-.001.002c-.332.557-.873 1.465-1.27 2.116h-3.406l1.865-3.06-1.934-3.241 1.734-2.838h-4.2L18.294 16h7.976Zm-6.438 6.191a373.19 373.19 0 0 0-1.567 2.57c-.235.405-.245.65-.01 1.043.165.273 1.05 1.72 1.577 2.58.527-.86 1.412-2.307 1.577-2.58.235-.394.225-.638-.01-1.042-.164-.28-1.042-1.715-1.567-2.571ZM8.308 7.431v6.783h2.226V7.43H8.308Zm6.534 6.783-1.28-5.703a1.342 1.342 0 0 0-.463-.77 1.287 1.287 0 0 0-.855-.31h-1.366l1.528 6.783h2.436Zm.335-6.783v6.783h2.226V7.43h-2.226ZM18.4 9.83c.207.121.443.184.683.182.239.002.473-.06.678-.182a1.356 1.356 0 0 0 .67-1.175 1.304 1.304 0 0 0-.182-.678 1.374 1.374 0 0 0-.488-.487 1.305 1.305 0 0 0-.678-.182 1.363 1.363 0 0 0-1.175.669 1.3 1.3 0 0 0-.181.678 1.346 1.346 0 0 0 .674 1.175Zm2.374-2.398v6.783h2.227V7.43h-2.227Zm5.188 3.94a5.124 5.124 0 0 0-.143-.233.58.58 0 0 1-.115-.315.61.61 0 0 1 .096-.306l1.891-3.086h-2.445a305.985 305.985 0 0 0-.812 1.333 107.797 107.797 0 0 1-.985 1.6.928.928 0 0 0-.152.459c.011.17.067.335.162.477.038.058.107.17.205.335.099.165.217.358.354.578.137.22.275.446.416.678.14.232.272.449.396.65l.416.673h2.445a150.16 150.16 0 0 1-.477-.788 198.775 198.775 0 0 0-.903-1.48c-.143-.234-.26-.425-.349-.574Z" clip-rule="evenodd"/><path fill="#000" d="M52.053 18.466a6.647 6.647 0 0 1-.207 1.745 3.186 3.186 0 0 1-.64 1.262 2.68 2.68 0 0 1-1.134.759 4.92 4.92 0 0 1-1.686.256 5.049 5.049 0 0 1-1.952-.345 2.47 2.47 0 0 1-1.261-1.163 4.769 4.769 0 0 1-.434-2.218V10.01h-2.07v9.09c-.022.817.129 1.63.444 2.385a4.066 4.066 0 0 0 1.222 1.587c.537.41 1.15.708 1.804.878.707.186 1.437.28 2.168.275a6.487 6.487 0 0 0 3.174-.69 4.33 4.33 0 0 0 1.844-1.932 6.631 6.631 0 0 0 .6-2.918V10.01h-1.872v8.456ZM60.984 13.883a3.86 3.86 0 0 0-1.045.454c-.337.21-.647.457-.927.739-.046.046-.092.098-.138.147v-1.468l-2.01.295v9.956h2.01v-7.448a5.192 5.192 0 0 1 1.075-.576c.203-.079.41-.148.62-.207a4.215 4.215 0 0 1 1.38-.148l.237-1.852c-.404-.03-.81.007-1.202.108ZM72.477 13.498l-1.104 1.166a4.578 4.578 0 0 0-.453-.298 5.392 5.392 0 0 0-2.681-.63 5.389 5.389 0 0 0-2.691.65 4.548 4.548 0 0 0-1.794 1.833 5.793 5.793 0 0 0-.641 2.8 5.961 5.961 0 0 0 .611 2.789c.113.215.243.42.389.614l-1.099 1.17.907.828 1.052-1.136c.151.113.31.216.475.308a5.345 5.345 0 0 0 2.613.611 5.493 5.493 0 0 0 2.71-.65 4.675 4.675 0 0 0 1.844-1.853c.464-.873.694-1.851.67-2.84a5.636 5.636 0 0 0-.621-2.71 4.608 4.608 0 0 0-.4-.613l1.14-1.21-.927-.829Zm-6.88 3.411c.221-.493.59-.907 1.055-1.183a3.147 3.147 0 0 1 1.606-.394c.447-.01.89.074 1.302.247.221.1.426.233.606.396l-4.587 4.954a5.103 5.103 0 0 1-.357-2.029 4.639 4.639 0 0 1 .375-1.99Zm5.205 4.061c-.226.51-.6.94-1.075 1.232a3.01 3.01 0 0 1-1.567.405 2.852 2.852 0 0 1-1.548-.414 2.408 2.408 0 0 1-.366-.29l4.589-4.954c.068.157.126.318.174.483.13.478.192.972.187 1.468a4.81 4.81 0 0 1-.394 2.071ZM79.929 13.883c-.369.099-.721.252-1.045.454-.336.21-.647.457-.927.739-.046.046-.092.098-.138.147v-1.468l-2.01.295v9.956h2.01v-7.448a5.192 5.192 0 0 1 1.075-.576c.204-.079.41-.148.62-.207a4.238 4.238 0 0 1 1.38-.148l.237-1.852c-.404-.03-.81.007-1.202.108ZM88.485 22.36c-.092.02-.194.04-.306.06l-.335.058c-.107.02-.216.033-.325.04-.105.007-.204.01-.296.01a1.984 1.984 0 0 1-.877-.178 1.27 1.27 0 0 1-.562-.522 1.662 1.662 0 0 1-.197-.838V15.53h2.78l.217-1.577h-2.997v-3.115l-2.011.71v2.405h-1.518l-.217 1.577h1.735v5.875c-.009.392.051.782.177 1.153.102.294.26.565.464.799.188.208.416.375.67.492.261.12.536.206.818.257.28.051.564.078.848.078.21 0 .417-.006.621-.019.205-.013.39-.033.562-.06a8.897 8.897 0 0 0 .867-.177l.119-1.636c-.077.03-.156.053-.237.07Z"/></svg>
